X:1
T:Title
%%score { 1 | 2 }
L:1/8
M:2/4
K:F
V:1 treble nm="Grand Piano"
V:2 bass 
V:1
 z2[Q:1/4=92] FG | A>A A[EG] | A<c FG | A2 [EG]>F |[M:3/8] F3 |[M:1/4] FG |[M:2/4] A>A A[EG] | %7
 A<c FG | A2 G>A |[M:3/8] [EG]3 |[M:1/4] [EG][FA] |[M:2/4] [GB]>[GB] [GB][GB] | [GB]<A Ac | %13
 d>d cA | [FA]<[EG] FG | A>A A[EG] | A<c FG | A2 G>F |[M:1/4] F2 |] %19
V:2
 z2 [F,A,][F,B,F] | [F,CF]>[F,CF] [F,CF][C,C] | [F,CF]<[F,A,F] [A,C][CE] | %3
 [F,CF]2[K:bass] [C,B,]>[F,A,C] |[M:3/8] [F,A,C]3 |[M:1/4] [F,A,][F,B,F] | %6
[M:2/4] [F,CF]>[F,CF] [F,CF][C,C] | [F,CF]<[F,A,F] [A,C][CE] | [F,CF]2 [G,=B,F]>[G,B,F] | %9
[M:3/8][K:bass] [C,C]3 |[M:1/4] [C,C][C,C] |[M:2/4] [C,C]>[C,C] [C,C][C,C] | %12
 [F,C]<[F,CF] [F,CF][F,A,F] | [F,B,F]>[F,B,F] [F,A,F][F,CF] | [C,C]<[C,C] [F,A,][F,B,F] | %15
 [F,CF]>[F,CF] [F,CF][C,C] | [F,CF]<[F,A,F] [A,C][CE] | [F,CF]2 [C,B,C]>[F,A,C] | %18
[M:1/4] [F,A,C]2 |] %19

